src/pos-icons/arrow-up-drop-circle-outline.svg

<svg height="24" viewBox="0 0 24 24" width="24" xmlns="http://www.w3.org/2000/svg"><path d="m12 22a10 10 0 0 0 10-10 10 10 0 0 0 -10-10 10 10 0 0 0 -10 10 10 10 0 0 0 10 10m0-2a8 8 0 0 1 -8-8 8 8 0 0 1 8-8 8 8 0 0 1 8 8 8 8 0 0 1 -8 8m5-6-5-5-5 5z"/></svg>

<?xml version="1.0" encoding="UTF-8"?><!DOCTYPE svg PUBLIC "-//W3C//DTD SVG 1.1//EN" "http://www.w3.org/Graphics/SVG/1.1/DTD/svg11.dtd"><svg xmlns="http://www.w3.org/2000/svg" xmlns:xlink="http://www.w3.org/1999/xlink" version="1.1" id="mdi-arrow-up-drop-circle-outline" width="24" height="24" viewBox="0 0 24 24"><path d="M12,22A10,10 0 0,0 22,12A10,10 0 0,0 12,2A10,10 0 0,0 2,12A10,10 0 0,0 12,22M12,20A8,8 0 0,1 4,12A8,8 0 0,1 12,4A8,8 0 0,1 20,12A8,8 0 0,1 12,20M17,14L12,9L7,14H17Z" /></svg>
